svgs/thin/file-export.svg

<svg xmlns="http://www.w3.org/2000/svg" viewBox="0 0 576 512"><!--! Font Awesome Pro 6.3.0 by @fontawesome - https://fontawesome.com License - https://fontawesome.com/license (Commercial License) Copyright 2023 Fonticons, Inc. --><path d="M573.7 298.9l-108-108C464.1 189.4 462.1 188.6 460 188.6s-4.094 .7813-5.656 2.344c-3.125 3.125-3.125 8.188 0 11.31l94.34 94.34H200c-4.406 0-8 3.578-8 8s3.594 8 8 8h348.7l-93.17 93.17c-3.125 3.125-3.125 8.188 0 11.31s8.188 3.125 11.31 0l106.8-106.8C576.8 307.1 576.8 302.1 573.7 298.9zM376 352c-4.418 0-8 3.582-8 8V448c0 26.51-21.49 48-48 48H64c-26.51 0-48-21.49-48-48V64c0-26.51 21.49-48 48-48h144v120c0 22.09 17.91 40 40 40h120v72C368 252.4 371.6 256 376 256S384 252.4 384 248V173.3c0-8.488-3.373-16.63-9.375-22.63L233.4 9.375C227.4 3.371 219.2 0 210.7 0H63.1C28.65 0 0 28.65 0 64l.0065 384c0 35.34 28.66 64 64 64H320c35.35 0 64-28.66 64-64v-88C384 355.6 380.4 352 376 352zM224 22.63L361.4 160H248C234.8 160 224 149.2 224 136V22.63z"/></svg>

<svg xmlns="http://www.w3.org/2000/svg" viewBox="0 0 576 512"><!-- Font Awesome Pro 6.0.0-alpha2 by @fontawesome - https://fontawesome.com License - https://fontawesome.com/license (Commercial License) --><path d="M573.656 298.93L465.656 190.93C464.094 189.367 462.062 188.586 460 188.586S455.906 189.367 454.344 190.93C451.219 194.055 451.219 199.117 454.344 202.242L548.688 296.586H200C195.594 296.586 192 300.164 192 304.586S195.594 312.586 200 312.586H548.688L455.516 405.758C452.391 408.883 452.391 413.945 455.516 417.07S463.703 420.195 466.828 417.07L573.656 310.242C576.781 307.117 576.781 302.055 573.656 298.93ZM376 352C371.582 352 368 355.582 368 360V448C368 474.508 346.51 496 320 496H64C37.49 496 16 474.508 16 448V64C16 37.492 37.49 16 64 16H208V136C208 158.094 225.908 176 248 176H368V248C368 252.418 371.582 256 376 256S384 252.418 384 248V173.254C384 164.766 380.627 156.625 374.625 150.621L233.371 9.375C227.367 3.371 219.227 0 210.736 0H64C28.654 0 0 28.652 0 64V448C0 483.344 28.654 512 64 512H320C355.346 512 384 483.344 384 448V360C384 355.582 380.418 352 376 352ZM224 22.629L361.375 160H248C234.781 160 224 149.234 224 136V22.629Z"/></svg>
